X: 0
T: nu-er-det-jul-igen
L: 1/4
M: 4/4
V: P1 name="SONG_001"
%%MIDI program 1 2
V: P2 name="SONG_001-2"
%%MIDI program 2 2
V: P3 name="SONG_001-3"
%%MIDI program 3 32
V: P4 name="SONG_001-4"
%%MIDI program 4 45
V: P5 name="SONG_001-5"
%%MIDI program 5 4
V: P6 name="SONG_001-6"
%%MIDI program 6 44
V: P7 name="SONG_001-7"
%%MIDI program 7 23
V: P8 name="SONG_001-8"
%%MIDI program 8 71
V: P9 name="SONG_001-9"
%%MIDI program 9 0
V: P10 name="SONG_001-10"
%%MIDI program 10 0
V: P11 name="SONG_001-11"
%%MIDI program 11 4
V: P12 name="Tempo Track"
%%MIDI program 12 -1
K: C
[V: P1]  z4 | [M: 4/4]  z4 |z2z3/4 [E/4G/4B/4]z3/8 [E/-G/-][E/8G/8] | [E3/4G3/4][F/4A/4]z3/8 [F/-A/-][F/8A/8] [F3/4A3/4][D/4^A/4]z/4 =A/[^A,/4G/4] |z/4 [B,/F/][G,/4E/4]z3/4 [E/4G/4]z3/4 F,/4z/4 A,3/4 |z/4 [F/A/]F,/4z/4 F3/4z/4 [F/A/]F,/4z/4 [F3/4A3/4] |z/4 [F/A/]F,/4- F,/4F3/4z/4 [F/A/]F,/4z/4 [F3/4A3/4] |z/4 F/F,/4- F,/4[F3/4A3/4]z/4 F/F,/4- F,/4[F/A/]F,/4- | F,/4[F3/4A3/4]z/4 G3/4z/4 [G/^A/]G,/4- G,/4[G3/4A3/4] |z/4 F/F,/4- F,/4[F3/4A3/4]z/4 [F/A/]G,/4- G,/4G3/4 |z/4 [G/^A/]G,/4- G,/4[G3/4A3/4]z/4 [G,/C/]F,/4z/4 [F3/4=A3/4] |z/4 [F/A/]G,/4- G,/4G3/4z/4 [G/^A/]G,/4- G,/4[G/A/]F,/4- | F,/4F3/4z/4 [F3/4A3/4]z/4 [F/A/]G,/4- G,/4G3/4 |z/4 [G/^A/]G,/4- G,/4[G3/4A3/4]z/4 [G,/C/]F,/4- F,/4[F3/4=A3/4] |z/4 [F3/4A3/4]z/4 [F3/4A3/4]z/4 [F3/4A3/4]z/4 F3/4 |z/4 [F3/4A3/4]z/4 [F3/4A3/4]z/4 [F3/4A3/4]z/4 F3/4 |z/4 A,3/4z/4 F3/4z/4 A,3/4z/4 F3/4 |z/4 [F3/4A3/4]z/4 [F3/4A3/4]z/4 [F3/4A3/4]z/4 G3/4 |z/4 [G3/4^A3/4]z/4 [G3/4A3/4]z/4 F3/4z/4 [F3/4=A3/4] |z/4 [F3/4A3/4]z/4 G3/4z/4 [G3/4^A3/4]z/4 [G3/4A3/4] |z/4 [G,3/4C3/4]z/4 [F3/4A3/4]z/4 [F3/4A3/4]z/4 G3/4 |z/4 G3/4z/4 [G3/4^A3/4]z/4 [F3/4=A3/4]z/4 [F3/4A3/4] |z/4 [F3/4A3/4]z/4 G3/4z/4 [G3/4^A3/4]z/4 [G3/4A3/4] |z/4 [C3/4D3/4E3/4]z/4 [F3/4A3/4]z/4 [F3/4A3/4]z/4 [F3/4A3/4] |z/4 [F3/4A3/4]z/4 [F3/4A3/4]z/4 [F3/4A3/4]z/4 [F,3/4F3/4A3/4f3/4] |z/4 [G,3/4G3/4^A3/4f3/4]z/4 [^G,3/4^G3/4B3/4f3/4]z/4 [=A,3/4=A3/4f3/4]z3/4 [^A,/4-E/4-] | [^A,3/4E3/4][=A,/4F/4]z3/4 [F/4A/4]z2|]
[V: P2]  z4 | [M: 4/4]  z4 | z4 |z3/4 F,,/4z3/8 F,,/-F,,/8 F,,3/4G,,/4z/4 A,,/^A,,/4 |z/4 B,,3/4z3 | z4 | z4 | z4 |z3/z/4 G,,/4- G,,z | z4 |z3/z/4 C,/4- C,z | z4 |z3/z/4 F,,/4- F,,z |z3/z/4 C,/4- C,z |z3/4 A,,/4- A,,/4F,,3/4z/4 A,,/F,,/4z |z3/4 F,,/4z3/z/4 F,,/4- F,, |z2z3/4 F,,/4- F,, |z3/4 F,,/4- F,,z3/4 F,,/4z |zz/4 G,,3/4z3/4 F,,/4z |z3/4 F,,/4z3/z/4 G,,/4- G,, |z3/4 F,,,/4- F,,,z3/4 F,,/4z |z3/4 G,,/4- G,,z3/4 F,,/4- F,, |z3/4 F,,/4z/4 G,,3/4z/4 G,,/G,,/4- G,, |z3/4 C,,/4z3/z/4 F,,/4- F,, |z3/4 A,,,/4- A,,,z3/4 F,,/4- F,,3/4G,,/4- | G,,3/4^G,,/4- G,,3/4A,,/4- A,,z |z3/4 F,,,/4- F,,,3/4F,,/4z2|]
[V: P3]  z4 | [M: 4/4]  z4 |z2z3/4 F,,,/4z3/8 F,,,/-F,,,/8 | F,,,3/4F,,/4z3/8 F,,/-F,,/8 F,,3/4G,,,/4z/4 A,,,/^A,,,/4 |z/4 B,,,/F,,,/4z3/4 F,,,/4- F,,,3/4F,,/8A,,,/8- A,,,3/4A,,,/8F,,,/8- | F,,,3/4F,,/8F,,/8- F,,3/4F,,,/8F,,,/8- F,,,3/4F,,/8F,,/8- F,,3/4F,,/4- | F,,3/4F,,/4- F,,3/4F,,,/4- F,,,3/4F,,/4- F,,3/4F,,/4- | F,,/8F,,/-F,,/8F,,/4- F,,3/4F,,,/4- F,,,3/4F,,/4- F,,3/4F,,/4- | F,,3/4G,,,/4- G,,,3/4G,,,/4- G,,,3/4G,,/4- G,,3/4F,,,/4- | F,,,3/4F,,/4- F,,3/4F,,,/4- F,,,3/4G,,/4- G,,3/4G,,/4- | G,,3/4G,,/4- G,,3/4C,,/4- C,,3/4F,,/4- F,,3/4F,,/4- | F,,3/4G,,/4- G,,3/4G,,,/4- G,,,3/4G,,/4- G,,3/4F,,/4- | F,,3/4F,,,/4- F,,,3/4F,,,/4- F,,,3/4G,,/4- G,,3/4G,,,/4- | G,,,3/4G,,/4- G,,3/4C,,/4- C,,3/4F,,/4- F,,3/4F,,,/4- | F,,,3/4A,,/4- A,,/4F,,/F,,,/4- F,,,/4A,,/F,,/8F,,/8- F,,3/4F,,,/8F,,,/8- | F,,,3/4F,,/8F,,/8- F,,3/4F,,,/4- F,,,3/4F,,/4- F,,3/4F,,,/4- | F,,,/4A,,,/F,,,/4- F,,,3/4F,,,/4- F,,,/4A,,,/F,,/4- F,,3/4F,,,/4- | F,,,3/4F,,/4- F,,3/4F,,,/4- F,,,3/4F,,/4 G,,3/4G,,,/8G,,,/8- | G,,,3/4G,,/8G,,/8- G,,/4G,,/G,,,/8F,,,/8- F,,,/4F,,/F,,/8F,,/8- F,,3/4F,,,/8F,,,/8- | F,,,3/4F,,/8G,,/8- G,,3/4G,,,/8G,,,/8- G,,,3/4G,,/4- G,,3/4C,,/8C,,/8- | C,,3/4F,,,/4- F,,,3/4F,,,/4- F,,,3/4F,,/8G,,/8- G,,3/4G,,,/4- | G,,,3/4G,,/4- G,,3/4G,,,/8F,,,/8- F,,,3/4F,,/4- F,,3/4F,,,/8F,,,/8- | F,,,3/4A,,/8G,,/8- G,,/4G,,/G,,,/4- G,,,/4^A,,/G,,/4- G,,3/4G,,,/4 | C,,3/4C,,/4 F,,3/4F,,,/4- F,,,3/4F,,/4- F,,3/4F,,,/4- | F,,,3/4A,,,/4- A,,,3/4F,,,/4- F,,,3/4F,,/4- F,,3/4G,,/4- | G,,3/4^G,,/4- G,,3/4A,,/4- A,,3/4F,,,/4- F,,,3/4F,,,/4- | F,,,3/4F,,/4- F,,3/4F,,,/4- F,,,z|]
[V: P4]  z4 | [M: 4/4]  z4 | z4 | z4 |z3z/4 A,3/4 |z/4 A3/4z/4 F3/4z/4 A3/4z/4 [F,3/4F3/4] |z/4 F,3/4z/4 F3/4z/4 A3/4z/4 F3/4 |z/4 F3/4z/4 F3/4zz/4 F3/4 |z/4 [F3/4A3/4]z/4 g3/4z/4 G3/4z/4 [G,3/4G3/4] |zz/4 F3/4z/4 A3/4z/4 G3/4 |z/4 G,3/4z/4 [^A,3/4G3/4]z/4 G,3/4z/4 F3/4 |z/4 [F3/4A3/4]z/4 G3/4z/4 ^A3/4z/4 G3/4 |z/4 F3/4z/4 [A3/4f3/4]z/4 F3/4z/4 G3/4 |z/4 ^A3/4z/4 G3/4z/4 G,3/4z/4 [F,3/4F3/4] | z4 | z4 | z4 | z4 | z4 | z4 | z4 | z4 | z4 | z4 | z4 | z4 | z4|]
[V: P5]  z4 | [M: 4/4]  z4 |z2z3/4 C/4z | z4 |z2z3/4 F/4- F3/4F/4 |z/4 F/F/4- F/4C3/4z/4 C/F/4- F/F/8[C3/8F3/8] |z/8 F/F3/8- F/8C3/4-C/8 C/-C/8F3/8z/8 E/[C3/8F3/8] |z/8 G3/8A/z/4 ^A/c/4- c/c/8c3/8- c/c/8C3/8- | C3/4[G/4^A/4]z/4 [G/A/][D/4G/4d/4]z/4 [G3/8A3/8][D/8A/8]G/4- G/G/8[F3/8=A3/8] |z/8 [F/A/][C3/8c3/8]z/8 [F/A/][C3/8F3/8A3/8]z/8 [F/-A/-][F/8A/8]G/4- G/8A/^A3/8- | ^A/8G/[D3/8F3/8] E/-E/8[E3/8-G3/8-] [E/G/][E/8G/8]F3/8- F3/4C/4- | C/C/8[G3/8^A3/8]z/8 [G/A/][D/8d/8]G/4z/8 [G/A/][D3/8-G3/8-A3/8-] [D/G/A/][D/8G/8A/8][F3/8=A3/8] |z/8 [F/A/][C3/8c3/8]z/8 [F/A/][C3/8F3/8A3/8]z/8 [F/A/]G3/8- G/8A/^A/8D/4- | D/8G/F/8D/4- D/8E/-E/8E/8G/8- G3/4F/4- F | F3/4F/8F/8- F3/4F/8[C/8F/8]z3/8 F3/8F/4- F/4C3/4 |z/4 C/F/4- F/F/8[C3/8F3/8]z/8 F/F3/8- F/8C3/4-C/8 |z/8 C/F3/8- F/8E/[C3/8F3/8] G/-G/8A3/8 ^A/-A/8c3/8- | c3/4[C/4-c/4-] [C3/c3/] [C3/8c3/8]^A/8 G3/8A3/8[D/8d/8]G/8- | G/4^A/8G3/8[D/4-G/4-A/4-] [D3/4G3/4A3/4][F/4=A/4]z/4 [F/A/][C/4-c/4-] [C/4c/4][F/A/][C/8A/8]F/8 |z/4 [F/A/]G/4- G/4A/^A/4- A/4G/[D/4F/4]z/8 E/-E/8[E/4-G/4-] | [E3/4G3/4]F/4- F3/4C/4- C3/4[G/4-^A/4-] [G/4A/4][G/A/][D/4-G/4-d/4-] | [D/4G/4d/4][G3/8^A3/8]D/8[G/4-A/4-] [G3/4A3/4][F/4=A/4]z/4 [F/A/][C/4-c/4-] [C/4c/4]A/[C/4F/4A/4] |z/8 F/8A/G/4- G/4A/^A/4- A/8G/-G/8[D/4F/4]z/8 E3/4[E/8-G/8-] | [E3/4G3/4][E/8G/8][C/8-F/8-] [CF]z2 | z4 | z4 | z4|]
[V: P6]  z4 | [M: 4/4]  z4 |z2z3/4 e'/4- e' | e'3/4f'/4- f'3/ f'/4g'/4z/4 f'/e'/4 | f'/8e'/8d'3/4z3/z/4 [F/8A/8]A,/8- A,3/4A,/8[F/8-A/8-] | [F3/4A3/4][F/8A/8]F/8- F3/4F/8[F/8-A/8-] [F/A/]F3/8[F/8-A/8-] [FA] | [F3/4A3/4]F/4- F/F/8[F3/8-A3/8-] [F3/8A3/8]F3/8[F/4-A/4-] [FA] | [F/8A/8]F/[F3/8-A3/8-] [F3/4A3/4]F/4- F3/4[F/4-A/4-] [FA] | [F3/4A3/4]G/4- G3/4[G/4-^A/4-] [G/A/][G/8A/8]G/8[G/4-A/4-] [G3/4A3/4]F/4- | F3/4[F/4-A/4-] [F/A/][F/8A/8]F/8[F/4-A/4-] [F3/4A3/4]G/4- G3/4[G/4-^A/4-] | [G3/^A3/] [G/4A/4][C/4-G/4-] [C3/4G3/4][F/4-=A/4-] [FA] | [F3/4A3/4]G/4- G3/4[G/4-^A/4-] [G/A/][G/8A/8]G/8[G/4-A/4-] [G3/4A3/4]F/4- | F3/4[F/4-A/4-] [F/A/]F/4[F/4-A/4-] [F3/4A3/4]G/4- G3/4[G/4-^A/4-] | [G/^A/][G/8A/8]G/8[G/4-A/4-] [G3/4A3/4][C/4-G/4-] [C3/4G3/4][F/4-=A/4-] [F3/4A3/4][A/4-f/4-] | [A2f2] [A3/4f3/4][A/8f/8]f/8- f3/4f/8[A/8-f/8-] | [A/f/]f3/8[A/8-f/8-] [A3/f3/] A/4f/4- f3/4A/8[A/8-f/8-] | [A/4f/4]A/f/4- f/f/8[A3/8-f3/8-] [A/4f/4]A3/8f/8f/4- f3/4[A/4-f/4-] | [A3f3] g3/4-g/8[^A/8-g/8-] | [^A/g/][A/8g/8]g/4[A/8-g/8-] [A3/4g3/4][A/8g/8]f/8- f3/4f/8[=A/8-f/8-] [A/f/][A/8f/8]f/4[A/8-f/8-] | [A3/4f3/4][A/8f/8]g/8- g3/4g/8[^A/8-g/8-] [A3/g3/] [A/4g/4]c/8[G/8-c/8-] | [G3/4c3/4][A/4-f/4-] [A3/f3/] [A/4f/4][A/8f/8]g/8- g | g3/4[^A/4-g/4-] [A3/4g3/4][A/8g/8][=A/8-f/8-] [A3/f3/] [A/8f/8]f/4[A/8-f/8-] | [A3/4f3/4][A/8f/8]g/8- g3/4[^A/4-g/4-] [A2g2] | [Ecd] [A3-f3-] | [A2f2] [A3/4f3/4][f/4-a/4-] [f3/4a3/4][g/4-^a/4-] | [g3/4^a3/4][^g/4-b/4-] [g3/4b3/4]=a/4- az3/4 [^A/4-e/4-] | [^A3/4e3/4][=A/4f/4]z3/4 [f/4f'/4]z2|]
[V: P7]  z4 | [M: 4/4]  z4 |z2z3/4 [e/4g/4b/4]z3/8 [e/-g/-][e/8g/8] | ^a/8=a/-a/8[f/4a/4]z3/8 a/-a/8z3/4 [g/4^a/4]z/4 [f/=a/][e/4g/4] |z/4 [d/f/]e/4z3/4 [e/4g/4]z2 | z4 | z4 | z4 | z4 | z4 | z4 | z4 | z4 | z4 |z/4 [F3/4A3/4]z/4 [F3/4A3/4]z/4 [F3/4A3/4]z/4 F3/4 |z/4 [F/4A/4]F/z/4 [F3/4A3/4]z/4 [F/4A/4]A,/z/4 F3/4 |z/4 A,3/4z/4 F3/4z/4 A,3/4z/4 F3/4 |z/4 [F3/4A3/4]z/4 [F3/4A3/4]z/4 [F3/4A3/4]z/4 G3/4 |z/4 [G3/4^A3/4]z/4 [G3/4A3/4]z/4 F3/4z/4 [F3/4=A3/4] |z/4 [F3/4A3/4]z/4 G3/4z/4 [G3/4^A3/4]z/4 [G3/4A3/4] |z/4 [C3/4G3/4]z/4 [F3/4A3/4]z/4 [F3/4A3/4]z/4 G3/4 |z/4 G3/4z/4 [G3/4^A3/4]z/4 [F3/4=A3/4]z/4 [F3/4A3/4] |z/4 [F3/4A3/4]z/4 G3/4z/4 [G3/4^A3/4]z/4 [G3/4A3/4] |z/4 [C3/4E3/4d3/4]z/4 [F3/4A3/4]z/4 [F3/4A3/4]z/4 [F3/4A3/4] |z/4 [F3/4A3/4]z/4 [F3/4A3/4]z/4 [F/A/]f/4z/4 a/4f/4f/4 |z/8 d/8^a/4g/4f/4 b/4^g/4f/4f/4z/4 =a/4f/z/8 ^c/8B/c/4 | d/4^d/4e/4f/4z/z/8 f/8a/8f/8- fz|]
[V: P8]  z4 | [M: 4/4]  z4 |z2z3/4 b/4z |z/z/8 g/8^g/8a/8zz3/8 f/4a/8^a/4z/4 =a/=g/4 | a/8g/8f/e/4- e/e/8g3/8z2 | z4 | z4 | z4 | z4 | z4 | z4 | z4 | z4 |z3z3/4 d'/4 |z3/4 a/4z/4 f3/4z/4 A/A/4z3/4 f/8f/8- | f/f/z3/z/4 f/4z/4 f/a/4 |z/8 f/8A3/4z3/4 f/4- f/4a3/4z3/4 a/4 |z3/4 a/4- a3/ a/4f/4 g/4^f/e'/4 |z2z3/4z/8 A/8- A3/4f/8f/8- | fz3/4z/8 ^a/8- a3/4a/4- a/4g3/4 |z/8 c3/4-c/8z/8 a/-a/8f/4- f3/4a/4z |z3/4 ^a/4- a3/4a/8=a/8- a3/4f/4- f/4e'/d'/8d'/8 |z3/4 a/4z/4 g3/4z3/4 ^a/4- a | G3/4c/4z3/z/4 f/4z/4 f/a/4 |z/8 f/8a3/4z/8 a/-a/8f/4- f3/4a/4- a3/4^a/4- | ^a3/4a/8b/8- bzz/8 e/8f/8e/8^d/8e/4f/8 |z/8 ^f/4g/4^g/4a/8z/ =f/8a/4f/8z2|]
[V: P9]  z4 | [M: 4/4]  z4 | z4 |z3/8 ^F,/4F,3/8zz3/8 F,/4F,3/8z |z3/z/4 [^A,,/4^A,/4]zz/4 ^F,3/4 |z/4 ^F,3/4z/4 F,3/4z/4 F,3/4z/4 F,3/4 |z/4 ^F,3/4z/4 F,3/4z/4 F,3/4z/4 F,3/4 |z/4 ^F,3/4z/4 F,3/4z/4 F,3/4z/4 F,3/4 |z/4 ^F,3/4z/4 F,3/4z/4 F,3/4z/4 F,3/4 |z/4 ^F,3/4z/4 F,3/4z/4 F,3/4z/4 F,3/4 |z/4 ^F,3/4z/4 F,3/4z/4 F,3/4z/4 F,3/4 |z/4 ^F,3/4z/4 F,3/4z/4 F,3/4z/4 F,3/4 |z/4 ^F,3/4z/4 F,3/4z/4 F,3/4z/4 F,3/4 |z/4 ^F,3/4z/4 F,3/4z/4 F,3/4z/4 F,/[F,/4G,/4] | ^F,/4F,/4F,/4[F,/4G,/4] F,/4F,/4F,/4[F,/4G,/4] F,/4F,/4F,/4[^C,/4F,/4] F,/4F,/4F,/4[F,/4G,/4] | ^F,/4F,/4F,/4[F,/4G,/4] F,/4F,/4F,/4[F,/4G,/4] F,/4F,/4F,/4[^C,/4F,/4] F,/4F,/4F,/4[F,/4G,/4] | ^F,/4F,/4F,/4[F,/4G,/4] F,/4F,/4F,/4[F,/4G,/4] F,/4F,/4F,/4[^C,/4F,/4] F,/4F,/4F,/4[F,/4G,/4] | ^F,/4F,/4F,/4[F,/4G,/4] F,/4F,/4F,/4[F,/4G,/4] F,/4F,/4F,/4[^C,/4F,/4] F,/4F,/4F,/4[F,/4G,/4] | ^F,/4F,/4F,/4[F,/4G,/4] F,/4F,/4F,/4[F,/4G,/4] F,/4F,/4F,/4[^C,/4F,/4] F,/4F,/4F,/4[F,/4G,/4] | ^F,/4F,/4F,/4[F,/4G,/4] F,/4F,/4F,/4[F,/4G,/4] F,/4F,/4F,/4[^C,/4F,/4] F,/4F,/4F,/4[F,/4G,/4] | ^F,/4F,/4F,/4[F,/4G,/4] F,/4F,/4F,/4[F,/4G,/4] F,/4F,/4F,/4[^C,/4F,/4] F,/4F,/4F,/4[F,/4G,/4] | ^F,/4F,/4F,/4[F,/4G,/4] F,/4F,/4F,/4[F,/4G,/4] F,/4F,/4F,/4[^C,/4F,/4] F,/4F,/4F,/4[F,/4G,/4] | ^F,/4F,/4F,/4[F,/4G,/4] F,/4F,/4F,/4[F,/4G,/4] F,/4F,/4F,/4[^C,/4F,/4] F,/4F,/4F,/4[F,/4G,/4] | ^F,/4F,/4F,/4[F,/4G,/4] F,/4F,/4F,/4[F,/4G,/4] F,/4F,/4F,/4[^C,/4F,/4] F,/4F,/4F,/4[F,/4G,/4] | ^F,/4F,/4F,/4[F,/4G,/4] F,/4F,/4F,/4[F,/4G,/4] F,/4F,/4F,/4[^C,/4F,/4] F,/4F,/4F,/4[F,/4G,/4] | ^F,/4F,/4F,/4[F,/4G,/4] F,/4F,/4F,/4[F,/4G,/4] F,/4F,/4F,/4[^C,/4F,/4] F,/4F,/4F,/4[F,/4G,/4] | ^F,/4F,/4F,/4[F,/4G,/4] F,/4F,/4F,/4[F,/4A,/4]z/8 A,3/4-A,/8z|]
[V: P10]  z4 | [M: 4/4]  z4 |z2z3/4 [B,,,/4^D,,/4^F,,/4]z3/8 [D,,/-F,,/-][D,,/8F,,/8] |z3/4 [B,,,/4^D,,/4^F,,/4]z3/8 [D,,/-F,,/-][D,,/8F,,/8]z3/4 [B,,,/4D,,/4F,,/4]z/4 F,,/[B,,,/4D,,/4F,,/4] |z/4 ^F,,/[B,,,/4^D,,/4F,,/4]z/4 F,,/4F,,/4[B,,,/4D,,/4]z3/4 [C,,/4^G,,/4]z/4 [=D,,/_E,,/G,,/][C,,/4G,,/4] |z/4 [D,,/_E,,/^G,,/][C,,/4G,,/4]z/4 [^D,,/G,,/][C,,/4G,,/4]z/4 [D,,/4G,,/4]=D,,/4[C,,/4G,,/4]z/4 [^D,,/G,,/][C,,/4G,,/4] |z/4 [^D,,/^G,,/][C,,/4G,,/4]z/4 [D,,/G,,/][C,,/4G,,/4]z/4 [D,,/G,,/][C,,/4G,,/4]z/4 [D,,/G,,/][C,,/4G,,/4] |z/4 [^D,,/^G,,/][C,,/4G,,/4]z/4 [D,,/G,,/][C,,/4G,,/4] =D,,/4[^D,,/4G,,/4]=D,,/4[C,,/4G,,/4]z/4 [^D,,/G,,/][C,,/4G,,/4] |z/4 [^D,,/^G,,/][C,,/4G,,/4]z/4 [=D,,/_E,,/G,,/][C,,/4G,,/4] D,,/4[^D,,/G,,/][C,,/4G,,/4]z/4 [=D,,/E,,/G,,/][C,,/4G,,/4] |z/4 [D,,/_E,,/^G,,/][C,,/4G,,/4]z/4 [^D,,/G,,/][C,,/4G,,/4]z/4 [D,,/4G,,/4]=D,,/4[C,,/4G,,/4]z/4 [^D,,/G,,/][C,,/4G,,/4] |z/4 [^D,,/^G,,/][C,,/4G,,/4]z/4 [D,,/G,,/][C,,/4G,,/4]z/4 [D,,/G,,/][C,,/4G,,/4]z/4 [D,,/G,,/][C,,/4G,,/4] |z/4 [^D,,/^G,,/][C,,/4G,,/4]z/4 [D,,/G,,/][C,,/4G,,/4] =D,,/4[^D,,/4G,,/4]=D,,/4[C,,/4G,,/4]z/4 [^D,,/G,,/][C,,/4G,,/4] |z/4 [^D,,/^G,,/][C,,/4G,,/4]z/4 [=D,,/_E,,/G,,/][C,,/4G,,/4] D,,/4[^D,,/G,,/][C,,/4G,,/4]z/4 [=D,,/E,,/G,,/][C,,/4G,,/4] |z/4 [D,,/_E,,/^G,,/][C,,/4G,,/4]z/4 [^D,,/G,,/][C,,/4G,,/4]z/4 [D,,/4G,,/4]=D,,/4[C,,/4G,,/4]z/4 [^D,,/G,,/][C,,/4G,,/4] |z/4 [^D,,/E,,/^G,,/][C,,/4G,,/4]z/4 [D,,/E,,/G,,/][C,,/4G,,/4]z/4 [D,,/E,,/G,,/][C,,/4G,,/4]z/4 [D,,/E,,/G,,/][C,,/4G,,/4] |z/4 [^D,,/E,,/^G,,/][C,,/4G,,/4]z/4 [D,,/E,,/G,,/][C,,/4G,,/4]z/4 [D,,/E,,/G,,/][C,,/4G,,/4]z/4 [D,,/E,,/][C,,/4G,,/4] |z/4 [^D,,/E,,/^G,,/][C,,/4G,,/4]z/4 [D,,/E,,/][C,,/4G,,/4]z/4 [D,,/E,,/G,,/][C,,/4G,,/4]z/4 [D,,/E,,/G,,/][C,,/4G,,/4] |z/4 [^D,,/E,,/^G,,/][C,,/4G,,/4]z/4 [D,,/E,,/G,,/][C,,/4G,,/4]z/4 [D,,/E,,/G,,/][C,,/4G,,/4]z/4 [D,,/E,,/][C,,/4G,,/4] |z/4 [^D,,/E,,/^G,,/][C,,/4G,,/4]z/4 [D,,/E,,/G,,/][C,,/4G,,/4]z/4 [D,,/E,,/G,,/][C,,/4G,,/4]z/4 [D,,/E,,/G,,/][C,,/4G,,/4] |z/4 [^D,,/E,,/^G,,/][C,,/4G,,/4]z/4 [D,,/E,,/G,,/][C,,/4G,,/4]z/4 [D,,/E,,/G,,/][C,,/4G,,/4]z/4 [D,,/E,,/][C,,/4G,,/4] |z/4 [^D,,/E,,/^G,,/][C,,/4G,,/4]z/4 [D,,/E,,/][C,,/4G,,/4]z/4 [D,,/E,,/G,,/][C,,/4G,,/4]z/4 [D,,/E,,/G,,/][C,,/4G,,/4] |z/4 [^D,,/E,,/^G,,/][C,,/4G,,/4]z/4 [D,,/E,,/G,,/][C,,/4G,,/4]z/4 [D,,/E,,/G,,/][C,,/4G,,/4]z/4 [D,,/E,,/][C,,/4G,,/4] |z/4 [^D,,/E,,/^G,,/][C,,/4G,,/4]z/4 [D,,/E,,/G,,/][C,,/4G,,/4]z/4 [D,,/E,,/G,,/][C,,/4G,,/4]z/4 [D,,/E,,/G,,/][C,,/4G,,/4] |z/4 [^D,,/E,,/^G,,/][C,,/4G,,/4]z/4 [D,,/E,,/G,,/][C,,/4G,,/4]z/4 [D,,/E,,/G,,/][C,,/4G,,/4]z/4 [D,,/E,,/][C,,/4G,,/4] |z/4 [^D,,/E,,/^G,,/][C,,/4G,,/4]z/4 [D,,/E,,/][C,,/4G,,/4]z/4 [D,,/E,,/G,,/][C,,/4G,,/4]z/4 [D,,/E,,/G,,/][C,,/4G,,/4] |z/4 [^D,,/E,,/^G,,/][C,,/4G,,/4]z/4 [D,,/E,,/G,,/][C,,/4G,,/4]z/4 [D,,/E,,/G,,/][C,,/4G,,/4]z/4 G,,/[C,,/4G,,/4] |z/4 ^G,,/[C,,/4G,,/4]z/4 [E,,/4G,,/4]E,,/4C,,/4z2|]
[V: P11]  z4 | [M: 4/4]  z4 | z4 | z4 |z3z3/4 [F/4-A/4-] | [F3/4A3/4]F/4- F3/4[F/4-A/4-] [F3/4A3/4][F/4-A/4-] [FA] | [F/A/][F/8A/8]F3/8- F/F/8[F3/8-A3/8-] [F/A/][F/8A/8][F3/8-A3/8-] [FA] | [F/A/][F/8A/8]A3/8- A/A/8F3/8- F/F/8A3/8- A | A3/4G/4- G/G/8^A3/8- A/A/8A3/8- A/A/8F3/8- | F/F/8A3/8- A/A/8A3/8- A/A/8G3/8- G/G/8^A3/8- | ^A3/ A/8[C3/8-G3/8-] [C/G/][C/8G/8][F3/8-=A3/8-] [FA] | [F/A/][F/8A/8]G3/8- G3/4^A/4- A/A/8A3/8- A/A/8F3/8- | F/F/8A3/8- A/A/8A3/8- A3/4G/4- G3/4^A/4- | ^A/A/8A3/8- A3/4[C/4-G/4-] [C/G/][C/8G/8]F/8=A/4- A | A3/4A/8[F/8-A/8-] [F3/A3/] [F/4A/4]F/4- F3/4[F/4-A/4-] | [F3/4A3/4]A/4- A3/ A/8F3/8- F/F/8A/8F/4- | F/F/8F3/8- F/F/8A3/8- A/A/8F3/8- F/F/8A3/8- | A2 A3/4A/8G/8- G3/4^A/4- | ^A3/4A/4- A3/4F/4- F3/4=A/4- A3/4A/4- | A3/4G/4- G3/4^A/4- A3/ A/4[C/4-G/4-] | [C3/4G3/4][F/4-A/4-] [F3/A3/] [F/4A/4]G/4- G | G/G/8^A3/8- A3/4[F/4-=A/4-] [F3/A3/] [F/4A/4]A/4- | A3/4G/4- G3/4^A/4- A3/ A/4C/8[D/8-E/8-G/8-] | [D3/4E3/4G3/4][D/8E/8G/8][F/8-A/8-] [F3A3] | [F3A3]z | z4 | z4|]
[V: P12]  z4 | [M: 4/4]  z4|]

